!!!OTL: 544. Wankelmuethige Liebe.
!!!ARE: Europa, Mitteleuropa, Deutschland, Hessen, Darmstadt
!!!SCT: E0544
!!!TXL: @@DE
!!!YEM: Copyright 1995, estate of Helmut Schaffrath.
**kern	**text
*ICvox	*
*M6/8	*
*k[b-]	*
*F:	*
!LO:TX:a:t=Sehr mäßig.	!
!LO:TX:a:t=Aus dem Heſſen-Darmſtädtiſchen. (Alsfeld, Meſſel, Hopfgarten rc.)	!
{8c	O
=1	=1
8.f	Him-
16e	-mel,
8f	wie
8g	lang
8f	ſoll
8g	ich
=2	=2
(4a	noch
8cc	.
4.b-)}	.
=3	=3
{8.a	tra-
16b-/	-gen
8a	das
8g	bit-
8f	-te-
8g	-re
=4	=4
4.f	Joch!
4r	.
8r}	.
=5	=5
{8a	Du
8f	ſagſt,
8cc	du
8.g	lie-
16f	-beſt
8e}	mich,
=6	=6
{8f	a-
8d	-ber
8g	du
8.e	haſ-
16d	-ſeſt
8c}	mich;
=7	=7
{8.f	Al-
16e	-les
8f	ſcheint
8.g	fin-
16f	-ſter
8g	und
=8	=8
(4a	trüb,
8cc	.
4.b-)}	.
=9	=9
{8.a	weil
16b-/	du
8a	ver-
8.g	-giiſ-
16f	-ſeſt
8g	die
=10	=10
4.f	Lieb.
4r}	.
==	==
!!!AGN: Liebes - Lied
!!!ONB: ESAC (Essen Associative Code) Database: ERK1
!!!AMT: compound duple
!!!AIN: vox
!!!EED: Helmut Schaffrath
!!!EEV: 1.0
!!!GTL: Liebeslieder [Neuere (aus dem 18. bis 19. Jahrh.) - Liebeslust]
!!!URL-scan: https://rosdok.uni-rostock.de/mcrviewer/recordIdentifier/rosdok_ppn745177662/iview2/phys_0373.iview2?x=-128.77276441889308&y=1600.3426461846102&scale=0.5870222003877485&rotation=0&layout=singlePageLayout
!!!ENC: Anna Maria Matuszewska
!!!EEV: 2024/10/12
*-	*-
